src/assets/icons/notification-icon.svg

<svg xmlns="http://www.w3.org/2000/svg" xmlns:xlink="http://www.w3.org/1999/xlink" viewBox="0 0 150 150" preserveAspectRatio="xMinYMin meet" ><path d="M65,10h20 v15 h35 v70 h20 v20 h-130 v-20 h20 v-70 h35 v-15 M55,115h40 v25 h-40 v-25" stroke-linejoin="miter" stroke-linecap="square" fill="none" style="fill:none;" stroke="black" stroke-width="10px"/></svg>

<svg xmlns="http://www.w3.org/2000/svg" xmlns:xlink="http://www.w3.org/1999/xlink" viewBox="0 0 150 150" preserveAspectRatio="xMinYMin meet" ><path d="M65,10 L85,10 L85,25 L120,25 L120,95 L140,95 L140,115 L10,115 L10,95 L30,95 L30,25 L65,25 L65,10 Z M55,115 L55,140 L95,140 L95,115" stroke-linejoin="miter" stroke-linecap="square" fill="none" style="fill:none;" stroke="black" stroke-width="10px"/></svg>
